Dominus_Funeral/symbolic/status/weather-snow-symbolic.svg

<?xml version="1.0" encoding="UTF-8" standalone="no"?>
<svg
   xmlns:dc="http://purl.org/dc/elements/1.1/"
   xmlns:cc="http://creativecommons.org/ns#"
   xmlns:rdf="http://www.w3.org/1999/02/22-rdf-syntax-ns#"
   xmlns:svg="http://www.w3.org/2000/svg"
   xmlns="http://www.w3.org/2000/svg"
   xmlns:sodipodi="http://sodipodi.sourceforge.net/DTD/sodipodi-0.dtd"
   xmlns:inkscape="http://www.inkscape.org/namespaces/inkscape"
   width="24"
   height="24"
   version="1.1"
   id="svg4"
   sodipodi:docname="weather-snow-symbolic.svg"
   inkscape:version="0.92.4 (5da689c313, 2019-01-14)">
  <metadata
     id="metadata10">
    <rdf:RDF>
      <cc:Work
         rdf:about="">
        <dc:format>image/svg+xml</dc:format>
        <dc:type
           rdf:resource="http://purl.org/dc/dcmitype/StillImage" />
        <dc:title></dc:title>
      </cc:Work>
    </rdf:RDF>
  </metadata>
  <defs
     id="defs8" />
  <sodipodi:namedview
     pagecolor="#ffffff"
     bordercolor="#666666"
     borderopacity="1"
     objecttolerance="10"
     gridtolerance="10"
     guidetolerance="10"
     inkscape:pageopacity="0"
     inkscape:pageshadow="2"
     inkscape:window-width="1085"
     inkscape:window-height="480"
     id="namedview6"
     showgrid="false"
     inkscape:zoom="11.833333"
     inkscape:cx="12"
     inkscape:cy="12"
     inkscape:window-x="0"
     inkscape:window-y="25"
     inkscape:window-maximized="0"
     inkscape:current-layer="svg4" />
  <path
     style="fill:#808080"
     d="M 12 2.4570312 A 5 5 0 0 0 7 7.4570312 A 5 5 0 0 0 7.1074219 8.4628906 A 3 3 0 0 0 7 8.4570312 A 3 3 0 0 0 4 11.457031 A 3 3 0 0 0 7 14.457031 L 16 14.457031 A 4 4 0 0 0 20 10.457031 A 4 4 0 0 0 16.919922 6.5683594 A 5 5 0 0 0 12 2.4570312 z M 6 16.4375 A 1 1 0 0 0 5 17.4375 A 1 1 0 0 0 6 18.4375 A 1 1 0 0 0 7 17.4375 A 1 1 0 0 0 6 16.4375 z M 9.9921875 16.490234 A 1 1 0 0 0 8.9921875 17.490234 A 1 1 0 0 0 9.9921875 18.490234 A 1 1 0 0 0 10.992188 17.490234 A 1 1 0 0 0 9.9921875 16.490234 z M 14 16.490234 A 1 1 0 0 0 13 17.490234 A 1 1 0 0 0 14 18.490234 A 1 1 0 0 0 15 17.490234 A 1 1 0 0 0 14 16.490234 z M 17.992188 16.542969 A 1 1 0 0 0 16.992188 17.542969 A 1 1 0 0 0 17.992188 18.542969 A 1 1 0 0 0 18.992188 17.542969 A 1 1 0 0 0 17.992188 16.542969 z M 8 20.490234 A 1 1 0 0 0 7 21.490234 A 1 1 0 0 0 8 22.490234 A 1 1 0 0 0 9 21.490234 A 1 1 0 0 0 8 20.490234 z M 11.992188 20.542969 A 1 1 0 0 0 10.992188 21.542969 A 1 1 0 0 0 11.992188 22.542969 A 1 1 0 0 0 12.992188 21.542969 A 1 1 0 0 0 11.992188 20.542969 z M 16 20.542969 A 1 1 0 0 0 15 21.542969 A 1 1 0 0 0 16 22.542969 A 1 1 0 0 0 17 21.542969 A 1 1 0 0 0 16 20.542969 z "
     id="path826" />
</svg>

<?xml version="1.0" encoding="UTF-8" standalone="no"?>
<svg
   xmlns:dc="http://purl.org/dc/elements/1.1/"
   xmlns:cc="http://creativecommons.org/ns#"
   xmlns:rdf="http://www.w3.org/1999/02/22-rdf-syntax-ns#"
   xmlns:svg="http://www.w3.org/2000/svg"
   xmlns="http://www.w3.org/2000/svg"
   xmlns:sodipodi="http://sodipodi.sourceforge.net/DTD/sodipodi-0.dtd"
   xmlns:inkscape="http://www.inkscape.org/namespaces/inkscape"
   width="24"
   height="24"
   version="1.1"
   id="svg4"
   sodipodi:docname="weather-snow-symbolic.svg"
   inkscape:version="0.92.4 (5da689c313, 2019-01-14)">
  <metadata
     id="metadata10">
    <rdf:RDF>
      <cc:Work
         rdf:about="">
        <dc:format>image/svg+xml</dc:format>
        <dc:type
           rdf:resource="http://purl.org/dc/dcmitype/StillImage" />
        <dc:title></dc:title>
      </cc:Work>
    </rdf:RDF>
  </metadata>
  <defs
     id="defs8" />
  <sodipodi:namedview
     pagecolor="#ffffff"
     bordercolor="#666666"
     borderopacity="1"
     objecttolerance="10"
     gridtolerance="10"
     guidetolerance="10"
     inkscape:pageopacity="0"
     inkscape:pageshadow="2"
     inkscape:window-width="1112"
     inkscape:window-height="480"
     id="namedview6"
     showgrid="false"
     inkscape:zoom="9.8333333"
     inkscape:cx="12"
     inkscape:cy="12"
     inkscape:window-x="0"
     inkscape:window-y="25"
     inkscape:window-maximized="0"
     inkscape:current-layer="svg4" />
  <path
     style="fill:#808080"
     d="m 12,2.4570312 a 5,5 0 0 0 -5,5 A 5,5 0 0 0 7.1074219,8.4628906 3,3 0 0 0 7,8.4570312 3,3 0 0 0 4,11.457031 a 3,3 0 0 0 3,3 h 9 a 4,4 0 0 0 4,-4 A 4,4 0 0 0 16.919922,6.5683594 5,5 0 0 0 12,2.4570312 Z M 6,16.4375 a 1,1 0 0 0 -1,1 1,1 0 0 0 1,1 1,1 0 0 0 1,-1 1,1 0 0 0 -1,-1 z m 3.9921875,0.05273 a 1,1 0 0 0 -1,1 1,1 0 0 0 1,1 1,1 0 0 0 1.0000005,-1 1,1 0 0 0 -1.0000005,-1 z m 4.0078125,0 a 1,1 0 0 0 -1,1 1,1 0 0 0 1,1 1,1 0 0 0 1,-1 1,1 0 0 0 -1,-1 z m 3.992188,0.05273 a 1,1 0 0 0 -1,1 1,1 0 0 0 1,1 1,1 0 0 0 1,-1 1,1 0 0 0 -1,-1 z M 8,20.490234 a 1,1 0 0 0 -1,1 1,1 0 0 0 1,1 1,1 0 0 0 1,-1 1,1 0 0 0 -1,-1 z m 3.992188,0.05273 a 1,1 0 0 0 -1,1 1,1 0 0 0 1,1 1,1 0 0 0 1,-1 1,1 0 0 0 -1,-1 z m 4.007812,0 a 1,1 0 0 0 -1,1 1,1 0 0 0 1,1 1,1 0 0 0 1,-1 1,1 0 0 0 -1,-1 z"
     id="path826"
     inkscape:connector-curvature="0" />
</svg>
